Sources/FrostedUI/Resources/Icons.xcassets/linkAdd20.imageset/link-add-20.svg

<svg width="20" height="20" viewBox="0 0 20 20" fill="none" xmlns="http://www.w3.org/2000/svg" data-fui-icon="true">
  <path
    d="M16 13C16.4142 13 16.75 13.3358 16.75 13.75V15.25H18.25C18.6642 15.25 19 15.5858 19 16C19 16.4142 18.6642 16.75 18.25 16.75H16.75V18.25C16.75 18.6642 16.4142 19 16 19C15.5858 19 15.25 18.6642 15.25 18.25V16.75H13.75C13.3358 16.75 13 16.4142 13 16C13 15.5858 13.3358 15.25 13.75 15.25H15.25V13.75C15.25 13.3358 15.5858 13 16 13ZM4.75098 7.43848C5.04387 7.14558 5.51863 7.14558 5.81152 7.43848C6.10442 7.73137 6.10442 8.20613 5.81152 8.49902L2.97168 11.3398C2.34983 11.9617 2 12.8051 2 13.6846C2.00023 15.5155 3.48447 16.9998 5.31543 17C6.19485 17 7.03831 16.6502 7.66016 16.0283L10.501 13.1885C10.7939 12.8956 11.2686 12.8956 11.5615 13.1885C11.8544 13.4814 11.8544 13.9561 11.5615 14.249L8.72168 17.0898C7.81853 17.993 6.59268 18.5 5.31543 18.5C2.65605 18.4998 0.500234 16.344 0.5 13.6846C0.5 12.4073 1.00701 11.1815 1.91016 10.2783L4.75098 7.43848ZM12.2197 5.71973C12.5126 5.42683 12.9874 5.42683 13.2803 5.71973C13.5732 6.01262 13.5732 6.48738 13.2803 6.78027L6.78027 13.2803C6.48738 13.5732 6.01262 13.5732 5.71973 13.2803C5.42683 12.9874 5.42683 12.5126 5.71973 12.2197L12.2197 5.71973ZM13.6846 0.5C16.344 0.500234 18.4998 2.65605 18.5 5.31543C18.5 6.59268 17.993 7.81853 17.0898 8.72168L14.249 11.5615C13.9561 11.8544 13.4814 11.8544 13.1885 11.5615C12.8956 11.2686 12.8956 10.7939 13.1885 10.501L16.0283 7.66016C16.6502 7.03831 17 6.19485 17 5.31543C16.9998 3.48447 15.5155 2.00023 13.6846 2C12.8051 2 11.9617 2.34983 11.3398 2.97168L8.49902 5.81152C8.20613 6.10442 7.73137 6.10442 7.43848 5.81152C7.14558 5.51863 7.14558 5.04387 7.43848 4.75098L10.2783 1.91016C11.1815 1.00701 12.4073 0.5 13.6846 0.5Z"
    fill="currentColor"
  />
</svg>

<svg xmlns="http://www.w3.org/2000/svg" width="20" height="20" fill="none" data-fui-icon="true" viewBox="0 0 20 20"><path fill="currentColor" d="M16 13a.75.75 0 0 1 .75.75v1.5h1.5a.75.75 0 0 1 0 1.5h-1.5v1.5a.75.75 0 0 1-1.5 0v-1.5h-1.5a.75.75 0 0 1 0-1.5h1.5v-1.5A.75.75 0 0 1 16 13M4.751 7.438A.75.75 0 1 1 5.811 8.5l-2.84 2.84A3.317 3.317 0 0 0 5.316 17c.88 0 1.723-.35 2.345-.972l2.841-2.84a.75.75 0 1 1 1.06 1.061l-2.84 2.84a4.817 4.817 0 0 1-6.81-6.81zM12.22 5.72a.75.75 0 1 1 1.06 1.06l-6.5 6.5a.75.75 0 1 1-1.06-1.06zM13.685.5a4.816 4.816 0 0 1 3.405 8.222l-2.841 2.84a.75.75 0 1 1-1.06-1.061l2.84-2.84a3.316 3.316 0 1 0-4.69-4.69L8.5 5.812a.75.75 0 1 1-1.06-1.06l2.84-2.84A4.82 4.82 0 0 1 13.684.5"/></svg>
